X: 15
T:Wally Wastes
% Nottingham Music Database
S:Kevin Briggs, via EF
M:4/4
L:1/4
K:D
"D"Ad AF|"D"DF DE|"D"F/2A/2F/2A/2 "A7"AB|"D"d3/2A/2 "A7"A/2F/2E|"D"D/2F/2A/2F/2 A/2=F/2F/2|"G"G2 G:|
P:B
d/2e/2|"G"dB "D"A/2B/2c/2d/2|"A7"e3/2e/2 e/2c/2B/2c/2|"D"d/2c/2d/2e/2 d/2c/2B/2A/2|"D"d/2B/2A/2F/2 D/2A/2B/2A/2|"G"B/2c/2d/2e/2 "D"f/2a/2f/2d/2|"Em"B/2A/2B/2c/2 "E7"B/2c/2B/2A/2|"D"A/2B/2A/2G/2 "A7"E/2E/2F/2E/2|
"D"F/2A/2A/2B/2 "A7"c/2d/2e/2e/2|"D"f/2d/2d/2f/2 "A7"e/2d/2c/2B/2|"D"D/2F/2A/2B/2 A/2B/2A/2G/2|
